match-match-game/assets/images/mark-setting.svg

<svg width="24" height="24" viewBox="0 0 24 24" fill="none" xmlns="http://www.w3.org/2000/svg">
<path d="M11.99 2C6.47 2 2 6.48 2 12C2 17.52 6.47 22 11.99 22C17.52 22 22 17.52 22 12C22 6.48 17.52 2 11.99 2ZM16.23 18L12 15.45L7.77 18L8.89 13.19L5.16 9.96L10.08 9.54L12 5L13.92 9.53L18.84 9.95L15.11 13.18L16.23 18Z" fill="white" fill-opacity="0.7"/>
<circle cx="12" cy="12" r="10" fill="white"/>
<path fill-rule="evenodd" clip-rule="evenodd" d="M16.7487 12.624C16.7727 12.424 16.7887 12.216 16.7887 12C16.7887 11.784 16.7727 11.576 16.7407 11.376L18.0927 10.32C18.2127 10.224 18.2447 10.048 18.1727 9.91198L16.8927 7.69598C16.8127 7.55198 16.6447 7.50398 16.5007 7.55198L14.9087 8.19198C14.5727 7.93598 14.2207 7.72798 13.8287 7.56798L13.5887 5.87198C13.5647 5.71198 13.4287 5.59998 13.2687 5.59998H10.7087C10.5487 5.59998 10.4207 5.71198 10.3967 5.87198L10.1567 7.56798C9.76474 7.72798 9.40474 7.94398 9.07674 8.19198L7.48474 7.55198C7.34074 7.49598 7.17274 7.55198 7.09274 7.69598L5.81274 9.91198C5.73274 10.056 5.76474 10.224 5.89274 10.32L7.24474 11.376C7.21274 11.576 7.18874 11.792 7.18874 12C7.18874 12.208 7.20474 12.424 7.23674 12.624L5.88474 13.68C5.76474 13.776 5.73274 13.952 5.80474 14.088L7.08474 16.304C7.16474 16.448 7.33274 16.496 7.47674 16.448L9.06874 15.808C9.40474 16.064 9.75674 16.272 10.1487 16.432L10.3887 18.128C10.4207 18.288 10.5487 18.4 10.7087 18.4H13.2687C13.4287 18.4 13.5647 18.288 13.5807 18.128L13.8207 16.432C14.2127 16.272 14.5727 16.056 14.9007 15.808L16.4927 16.448C16.6367 16.504 16.8047 16.448 16.8847 16.304L18.1647 14.088C18.2447 13.944 18.2127 13.776 18.0847 13.68L16.7487 12.624V12.624ZM11.9887 14.4C10.6687 14.4 9.58874 13.32 9.58874 12C9.58874 10.68 10.6687 9.59998 11.9887 9.59998C13.3087 9.59998 14.3887 10.68 14.3887 12C14.3887 13.32 13.3087 14.4 11.9887 14.4Z" fill="#2F80ED"/>
</svg>

<svg width="24" height="24" fill="none" xmlns="http://www.w3.org/2000/svg"><path d="M11.99 2C6.47 2 2 6.48 2 12s4.47 10 9.99 10C17.52 22 22 17.52 22 12S17.52 2 11.99 2zm4.24 16L12 15.45 7.77 18l1.12-4.81-3.73-3.23 4.92-.42L12 5l1.92 4.53 4.92.42-3.73 3.23L16.23 18z" fill="#fff" fill-opacity=".7"/><circle cx="12" cy="12" r="10" fill="#fff"/><path fill-rule="evenodd" clip-rule="evenodd" d="M16.749 12.624c.024-.2.04-.408.04-.624 0-.216-.016-.424-.048-.624l1.352-1.056a.33.33 0 00.08-.408l-1.28-2.216a.325.325 0 00-.392-.144l-1.592.64a4.687 4.687 0 00-1.08-.624l-.24-1.696a.32.32 0 00-.32-.272h-2.56a.311.311 0 00-.312.272l-.24 1.696c-.392.16-.752.376-1.08.624l-1.592-.64a.316.316 0 00-.392.144l-1.28 2.216a.31.31 0 00.08.408l1.352 1.056c-.032.2-.056.416-.056.624 0 .208.016.424.048.624L5.885 13.68a.33.33 0 00-.08.408l1.28 2.216c.08.144.248.192.392.144l1.592-.64c.336.256.688.464 1.08.624l.24 1.696c.032.16.16.272.32.272h2.56c.16 0 .296-.112.312-.272l.24-1.696c.392-.16.752-.376 1.08-.624l1.592.64c.144.056.312 0 .392-.144l1.28-2.216a.31.31 0 00-.08-.408l-1.336-1.056zm-4.76 1.776c-1.32 0-2.4-1.08-2.4-2.4 0-1.32 1.08-2.4 2.4-2.4 1.32 0 2.4 1.08 2.4 2.4 0 1.32-1.08 2.4-2.4 2.4z" fill="#2F80ED"/></svg>
